X: 223
T: 224. Das walt Gott Vater und Gott Sohn
N: Derived from chor224.krn
C: Johann Sebastian Bach
%%abc-version 2.0
%%abcx-abcm2ps-target-version 5.9.1 (29 Sep 2008)
%%abc-creator hum2abc beta
%%abcx-conversion-date 2019/03/11 17:28:19
%%abc-edited-by Craig Stuart Sapp
%%humdrum-veritas 2377921916
%%humdrum-veritas-data 2562069666
%%
%%barnumbers 0
L: 1/4
M: C
%%staves [1 2 3 4]
V: 1 clef=treble
V: 2 clef=treble
V: 3 clef=treble-8
V: 4 clef=bass
K: F
[V:1] F [I:setbarnb 1]| 
[V:2] C | 
[V:3] A | 
[V:4] F, | 
[V:1] AccA | 
[V:2] FFEE- | 
[V:3] ccGA | 
[V:4] F,A,,/B,,/C,^C, | 
[V:1] FG!fermata!AF | 
[V:2] E/D/=C!fermata!CC | 
[V:3] AG!fermata!FA | 
[V:4] D,E,!fermata!F,F, | 
[V:1] ccde | 
[V:2] FGA/=B/c | 
[V:3] Acfe | 
[V:4] F,3/E,/D,A,/G,/ | 
[V:1] f/e/d!fermata!cc | 
[V:2] c3/=B/!fermata!GG- | 
[V:3] ad/g//f//!fermata!ec | 
[V:4] F,G,!fermata!C,E, | 
[V:1] Acdc | 
[V:2] G/F//E//FFF | 
[V:3] cc-c/B/- B/A/ | 
[V:4] F,A,,/F,,/B,,F,- | 
[V:1] BA!fermata!Gc | 
[V:2] G/C/ C/F/- F/!fermata!E/G | 
[V:3] GA3//B//!fermata!cc | 
[V:4] F,/E,/F,!fermata!C,E, | 
[V:1] A/B/cBA/G/ | 
[V:2] FFFE | 
[V:3] ccdc/B/ | 
[V:4] F,A,,B,,C, | 
[V:1] FG!fermata!F |]  
[V:2] D//E//FE/!fermata!C |]  
[V:3] A/G//F// c3//B//!fermata!A |]  
[V:4] D,C,!fermata!F, |]  



